!!!CDT:
!!!PTL: L'undecimo libro delli madrigali a cinque voci
!!!PPP: Venice
!!!PPR: Angelo Gardano
!!!PDT: 1586
!!!PUB-format:
!!!RISM: M 3379
!!!rime: 395
!!!AGN: Madrigal
!!!SCT: Trm0395c
!!!SCA: Trm0395c
!!!original-voices: 5
!!!extant-voices: 5
!!!complete: Y
!!!final: (G)G
!!!COM: Monte, Filippo di
!!!OTL: In un bel bosco leggiadre fronde
**kern	**text	**kern	**text	**kern	**text	**kern	**text	**kern	**text
*part5	*part5	*part4	*part4	*part3	*part3	*part2	*part2	*part1	*part1
*staff5	*staff5	*staff4	*staff4	*staff3	*staff3	*staff2	*staff2	*staff1	*staff1
*I"Basso	*	*I"Tenore	*	*I"Alto	*	*I"Quinto	*	*I"Canto	*
*I'B	*	*I'T	*	*I'A	*	*I'V	*	*I'C	*
*oclefC4	*	*oclefC3	*	*oclefC2	*	*oclefG2	*	*oclefG2	*
*clefF4	*	*clefGv2	*	*clefG2	*	*clefG2	*	*clefG2	*
*k[b-]	*	*k[b-]	*	*k[b-]	*	*k[b-]	*	*k[b-]	*
*F:	*	*F:	*	*F:	*	*F:	*	*F:	*
*omet(C)	*	*omet(C)	*	*omet(C)	*	*omet(C)	*	*omet(C)	*
*M4/2	*	*M4/2	*	*M4/2	*	*M4/2	*	*M4/2	*
=1	=1	=1	=1	=1	=1	=1	=1	=1	=1
!!LO:TX:a:t=Prima parte.
0r	.	0r	.	4r	.	4r	.	2ff	In
.	.	.	.	4B-y	In	4dd	In	.	.
.	.	.	.	4f	un	4a	un	4cc	un
.	.	.	.	4d	bel	4b-y	bel	4dd	bel
.	.	.	.	4.e-X	bo-	4.g	bo-	4.b-y	bo-
.	.	.	.	8c	-sco	8g	-sco	8cc	-sco
.	.	.	.	4d	di	4f#X	di	4a	di
.	.	.	.	4d	leg-	4a	leg-	4ff	leg-
=2	=2	=2	=2	=2	=2	=2	=2	=2	=2
0r	.	1r	.	4g	-gia-	4bnX	-gia-	4dd	-gia-
.	.	.	.	4b-y	-dre	4dd	-dre	4dd	-dre
.	.	.	.	2a	fron-	2cc#X	fron-	2ee	fron-
.	.	2r	.	2d	-de	2dd	-de	2dd	-de
.	.	4G	Ch'om-	4g	Ch'om-	4dd	Ch'om-	4bnX	Ch'om-
.	.	8GL	-bra	8gL	-bra	8ddL	-bra	8bniL	-bra
.	.	8GJ	si	8gJ	si	8ddJ	si	8bniJ	si
=3	=3	=3	=3	=3	=3	=3	=3	=3	=3
0r	.	4c	fa	4g	fa	4ee	fa	4cc	fa
.	.	4F	con	4a	con	4ff	con	4cc	con
.	.	4f	le	4a	le	4ccnXi	le	4a	le
.	.	4d	ra-	4b-y	ra-	4dd	ra-	4ff	ra-
.	.	4e-X	-mo-	4g	-mo-	4b-i	-mo-	4ee-X	-mo-
.	.	4c	-se	4g	-se	4cc	-se	4ee-i	-se
.	.	2d	brac-	2f#X	brac-	2a	brac-	2dd	brac-
=4	=4	=4	=4	=4	=4	=4	=4	=4	=4
4r	.	2d	-cia,	4f#i	-cia,	4a	-cia,	2dd	-cia,
4G	A-	.	.	4g	A-	4b-y	A-	.	.
4.d	-mor,	2r	.	4.f#i	-mor,	4.a	-mor,	2r	.
8c	che	.	.	8f#i	che	8a	che	.	.
4B-y	va	4r	.	4g	va	4b-y	va	4r	.
4A	de	4A	A-	4a	de	4cc	de	4cc	A-
[2G	l'al-	4.d	-mor,	4b-y	l'al-	[2dd	l'al-	4.b-y	-mor,
.	.	.	.	4g	-me	.	.	.	.
.	.	8c	che	.	.	.	.	8a	che
=5	=5	=5	=5	=5	=5	=5	=5	=5	=5
4G]	.	4B-y	va	1d	no-	2dd]	.	4g	va
4D	-me	4A	de	.	.	.	.	4f#X	de
2G	no-	4G	l'al-	.	.	4dd	-me	4.g	l'al-
.	.	4d	-me	.	.	2b-y	no-	.	.
.	.	.	.	.	.	.	.	8g	-me
2E-X	-stre a	4e-X	no-	2g	-stre a	.	.	4g	no-
.	.	4e-i	-stre a	.	.	4b-y	-stre a	2b-y	-stre a
2F	cac-	2c	cac-	2fnXi	cac-	2ff	cac-	.	.
.	.	.	.	.	.	.	.	4a	cac-
=6	=6	=6	=6	=6	=6	=6	=6	=6	=6
2BB-y	-cia	2B-y	-cia	2f	-cia	2dd	-cia	2b-y	-cia
2r	.	4B-y	Te-	2r	.	4dd	Te-	4ffnXi	Te-
.	.	8B-yL	-se	.	.	8ddL	-se	8ffL	-se
.	.	8B-yJ	le	.	.	8ccJ	le	8eeJ	le
1r	.	4B-y	re-	2r	.	4b-y	re-	4dd	re-
.	.	4f	-ti	.	.	4a	-ti	4cc	-ti
.	.	[2B-y	di	4f	Te-	4.b-y	di	2dd	di
.	.	.	.	8fL	-se	.	.	.	.
.	.	.	.	8eJ	le	8cc	due	.	.
=7	=7	=7	=7	=7	=7	=7	=7	=7	=7
0r	.	4B-]	.	4d	re-	4dd	trec-	4g	due
.	.	4c	due	4c	-ti	4ee-X	-cie	4.g	trec-
.	.	4B-y	trec-	4.d	di	1.dd	bion-	.	.
.	.	.	.	.	.	.	.	8aL	.
.	.	4G	-cie	.	.	.	.	8b-y	.
.	.	.	.	8e	due	.	.	8gJ	.
.	.	1d	bion-	4f#X	trec-	.	.	4a	.
.	.	.	.	4g	-cie	.	.	4b-y	-cie
.	.	.	.	2f#X	bion-	.	.	2a	bion-
=8	=8	=8	=8	=8	=8	=8	=8	=8	=8
2r	.	2d	-de;	2f#i	-de;	1dd	-de;	2a	-de;
2D	Co-	2A	Co-	4r	.	.	.	2f#X	Co-
.	.	.	.	2d	Co-	.	.	.	.
2G	-sì io	2B-y	-sì il	.	.	1r	.	2g	-sì il
.	.	.	.	2d	-sì il	.	.	.	.
2E-X	mio	2G	mio	.	.	.	.	2g	mio
.	.	.	.	4c	mio	.	.	.	.
=9	=9	=9	=9	=9	=9	=9	=9	=9	=9
2D	cor,	2.A	cor,	2d	cor,	2r	.	2f#X	cor,
2r	.	.	.	2e	<Co-	2cc#X	Co-	4r	.
.	.	4A	<Co-	.	.	.	.	2a	<Co-
1r	.	2d	-sì il	2fnXi	-sì il	2dd	-sì il	.	.
.	.	.	.	.	.	.	.	2a	-sì il
.	.	2B-y	mio	2d	mio	2dd	mio	.	.
.	.	.	.	.	.	.	.	4g	mio
=10	=10	=10	=10	=10	=10	=10	=10	=10	=10
4r	.	4A	cor,>	2e	cor,>	2cc#X	cor,	2a	cor,>
4A	c'ha-	4A	c'ha-	.	.	.	.	.	.
4.B-y	-vea	4.d	-vea	2r	.	2r	.	2r	.
8A	di	8c	di	.	.	.	.	.	.
4G	due	4B-y	due	1r	.	1r	.	1r	.
4G	gio-	4B-y	gio-	.	.	.	.	.	.
2F#X	-con-	2A	-con-	.	.	.	.	.	.
=11	=11	=11	=11	=11	=11	=11	=11	=11	=11
2G	-de,	4G	-de,	4r	.	4r	.	4r	.
.	.	4g	Co-	4b-y	Co-	2ee-X	Co-	2gg	<Co-
2r	.	2g	-sì il	2.b-y	-sì il	.	.	.	.
.	.	.	.	.	.	2dd	-sì il	2gg	-sì il
1r	.	2e-X	mio	.	.	.	.	.	.
.	.	.	.	4g	mio	4ccnXi	mio	4gg	mio
.	.	2d	cor,	4a	cor,	4dd	cor,	2ff#X	cor,>
.	.	.	.	4a	c'ha-	4dd	c'ha-	.	.
=12	=12	=12	=12	=12	=12	=12	=12	=12	=12
1r	.	1r	.	4.b-y	-vea	4.dd	-vea	1r	.
.	.	.	.	8a	di	8cc	di	.	.
.	.	.	.	4g	due	4b-y	due	.	.
.	.	.	.	4g	gio-	4b-y	gio-	.	.
2r	.	2r	.	2f#X	-con-	2a	-con-	2r	.
4r	.	4r	.	4g	-de,	2g	-de,	4r	.
4G	Co-	[4g	<Co-	[4b-y	<Co-	.	.	4dd	Co-
=13	=13	=13	=13	=13	=13	=13	=13	=13	=13
2d	-sì il	4g]	.	4b-]	.	1r	.	2.dd	-sì il
.	.	2f	-sì il	2a	-sì il	.	.	.	.
2B-y	mio	.	.	.	.	.	.	.	.
.	.	4d	mio	4g	mio	.	.	4dd	mio
4A	cor,	4e	cor,>	4a	cor,	4r	.	4cc#X	cor,
4A	c'ha-	4e	c'ha-	4e	c'ha-	4cc#X	<c'ha-	4ee	c'ha-
4.D	-vea	4d	-vea	4.a	-vea	4.dd	-vea	4.ff	-vea
.	.	4A	di	.	.	.	.	.	.
8C#X	di	.	.	8a	di	8ee	di	8ee	di
=14	=14	=14	=14	=14	=14	=14	=14	=14	=14
4D	due	4A	due	4a	due	4ff	due	4dd	due
4D	gio-	4f	gio-	4a	gio-	4dd	gio-	4dd	gio-
2A	-con-	4e	-con-	2a	-con-	2ee	-con-	2cc#X	-con-
.	.	4A	-de	.	.	.	.	.	.
2A	-de	4r	.	4a	-de>	4ee	-de>	4cc#i	-de
.	.	4.A	Lu-	4.e	Lu-	4.a	Lu-	4.cc#i	Lu-
2r	.	.	.	.	.	.	.	.	.
.	.	8A	-ci	8e	-ci	8a	-ci	8cc#i	-ci
.	.	4d	se-	4f#X	se-	4a	se-	4dd	se-
=15	=15	=15	=15	=15	=15	=15	=15	=15	=15
0r	.	2c	-gui-	2g	-gui-	2cc	-gui-	2ee	-gui-
.	.	2B-y	-ta	2b-y	-ta	2dd	-ta	4ff	-ta
.	.	.	.	.	.	.	.	2gg	la
.	.	2.c	la	2a	la	4ee	la	.	.
.	.	.	.	.	.	4ff	fal-	2ff	fal-
.	.	.	.	2g	fal-	4gg	-la-	.	.
.	.	4c	fal-	.	.	[4cc	-ce	[4ee	-la-
=16	=16	=16	=16	=16	=16	=16	=16	=16	=16
1r	.	4G	-la-	4.g	-la-	8ccL]	.	4ee]	.
.	.	.	.	.	.	16bnXL	.	.	.
.	.	.	.	.	.	16aJJ	.	.	.
.	.	4G	-ce	.	.	4bni	.	2dd	-ce
.	.	.	.	8d	.	.	.	.	.
.	.	2A	trac-	4f	.	2cc	trac-	.	.
.	.	.	.	4e	-ce	.	.	2cc	trac-
2r	.	2G	-cia,	2g	trac-	2dd	-cia,	.	.
.	.	.	.	.	.	.	.	4bnX	-cia,
[2G	Pre-	[2g	Pre-	2d	-cia,	[2bnX	Pre-	[2dd	Pre-
=17	=17	=17	=17	=17	=17	=17	=17	=17	=17
4G]	.	4g]	.	2r	.	4b]	.	4dd]	.
4G	-so	4g	-so	.	.	4bnXi	-so	4dd	-so
2G	re-	2g	re-	2.g	Pre-	2bni	re-	2dd	re-
1c	-stò,	2.e	-stò,	.	.	1cc	-stò,	2.ee	-stò,
.	.	.	.	4g	-so	.	.	.	.
.	.	.	.	2g	re-	.	.	.	.
.	.	4e	co-	.	.	.	.	[4gg	co-
=18	=18	=18	=18	=18	=18	=18	=18	=18	=18
0r	.	2d	-me a-	2a	-stò,	2r	.	4gg]	.
.	.	.	.	.	.	.	.	2ff	-me a-
.	.	2c	-ni-	2cc	co-	4r	.	.	.
.	.	.	.	.	.	2gg	co-	4ee	-ni-
.	.	4g	-mal	2b-y	-me a-	.	.	4dd	-mal
.	.	8dL	s'al-	.	.	2ff	-me a-	4dd	s'al-
.	.	8eJ	.	.	.	.	.	.	.
.	.	8fL	.	4a	-ni-	.	.	2cc	-lac-
.	.	8gJ	.	.	.	.	.	.	.
.	.	4a	.	[4cc	-mal	[4ee	-ni-	.	.
=19	=19	=19	=19	=19	=19	=19	=19	=19	=19
0r	.	0g	-lac-	4cc]	.	4ee]	.	4gg	-cia,
.	.	.	.	8bnXL	.	2dd	-mal	4gg	co-
.	.	.	.	8aJ	.	.	.	.	.
.	.	.	.	2.bnX	.	.	.	4ff	-me a-
.	.	.	.	.	.	4gg	s'al-	4ee	-ni-
.	.	.	.	.	.	1gg	-lac-	4dd	-mal
.	.	.	.	2cc	s'al-	.	.	4ee	s'al-
.	.	.	.	.	.	.	.	2dd	-lac-
.	.	.	.	4bni	-lac-	.	.	.	.
=20	=20	=20	=20	=20	=20	=20	=20	=20	=20
2r	.	2c	-cia,	2cc	-cia,	2ee	-cia,	2cc	-cia,
2.G	<Pre-	2.g	Pre-	2r	.	2.dd	Pre-	2.bnX	Pre-
.	.	.	.	2r	.	.	.	.	.
4G	-so	4g	-so	.	.	4dd	-so	4bni	-sto
2G	re-	2g	re-	[2g	Pre-	2dd	re-	2bni	re-
=21	=21	=21	=21	=21	=21	=21	=21	=21	=21
1c	-stò,>	1e	-stò,	4g]	.	0ee	-stò,	2cc	-stò,
.	.	.	.	4g	-so	.	.	.	.
.	.	.	.	2g	re-	.	.	2.cc	<Pre-
2r	.	1r	.	2.a	-stò,	.	.	.	.
.	.	.	.	.	.	.	.	4cc	-so
2A	co-	.	.	.	.	.	.	2cc	re-
.	.	.	.	[4cc	co-	.	.	.	.
=22	=22	=22	=22	=22	=22	=22	=22	=22	=22
2G	-me a-	2r	.	4cc]	.	2r	.	4.dd	-stò,>
.	.	.	.	2b-y	-me a-	.	.	.	.
.	.	.	.	.	.	.	.	16ccLL	.
.	.	.	.	.	.	.	.	16bnXiJJ	.
2F	-ni-	2f	co-	.	.	4r	.	2cc	.
.	.	.	.	4a	-ni-	2cc	co-	.	.
4c	-mal	2e-X	-me a-	4g	-mal	.	.	1r	.
8GL	s'al-	.	.	4g	s'al-	2b-y	-me a-	.	.
8AJ	.	.	.	.	.	.	.	.	.
8B-yL	.	4d	-ni-	2f	-lac-	.	.	.	.
8cJ	.	.	.	.	.	.	.	.	.
4d	.	[4f	-mal	.	.	[4a	-ni-	.	.
=23	=23	=23	=23	=23	=23	=23	=23	=23	=23
0c	-lac-	4f]	.	4cc	-cia,	4a]	.	0r	.
.	.	8enXiL	.	4cc	co-	2g	-mal	.	.
.	.	8dJ	.	.	.	.	.	.	.
.	.	2.e	.	4b-y	-me a-	.	.	.	.
.	.	.	.	4a	-ni-	4cc	s'al-	.	.
.	.	.	.	4g	-mal	1cc	-lac-	.	.
.	.	4f	s'al-	4a	s'al-	.	.	.	.
.	.	2e	-lac-	2g	-lac-	.	.	.	.
=24	=24	=24	=24	=24	=24	=24	=24	=24	=24
2c	-cia	2e	-cia	4g	-cia	4.cc	-cia	4r	.
.	.	.	.	2g	Ne'	.	.	2gg	Ne'
.	.	.	.	.	.	8dd	Ne'	.	.
2r	.	2r	.	.	.	4ee	bei	.	.
.	.	.	.	4a	bei	4ff	le-	2ff	bei
1r	.	2r	.	4b-y	le-	2gg	-ga-	.	.
.	.	.	.	2cc	-ga-	.	.	2ee-X	le-
.	.	4r	.	.	.	4cc	-mi,	.	.
.	.	4d	Ne'	[4b-y	-mi	4ff	<Ne'	[4dd	-ga-
=25	=25	=25	=25	=25	=25	=25	=25	=25	=25
0r	.	4e	bei	4b-]	.	4gg	bei	4dd]	.
.	.	4f	le-	2a	che	4aa	le-	4cc	-mi
.	.	1g	-ga-	.	.	2dd	-ga-	4.b-y	che
.	.	.	.	4g	ne	.	.	.	.
.	.	.	.	.	.	.	.	8a	ne
.	.	.	.	4b-y	l'om-	2dd	-mi,>	4g	l'om-
.	.	.	.	2g	-br'a-	.	.	4b-y	-br'a-
.	.	2d	-mi,	.	.	2r	.	2a	-scon-
.	.	.	.	4f#X	-scon-	.	.	.	.
=26	=26	=26	=26	=26	=26	=26	=26	=26	=26
0r	.	1r	.	2g	-de,	4r	.	4g	-de,
.	.	.	.	.	.	2gg	<Ne'	4dd	Ne'
.	.	.	.	4r	.	.	.	4ee	bei
.	.	.	.	2dd	<Ne'	2ff	bei	4ff	le-
.	.	2r	.	.	.	.	.	2gg	-ga-
.	.	.	.	2cc	bei	2ee-X	le-	.	.
.	.	4r	.	.	.	.	.	4cc	-mi,
.	.	4d	<Ne'	[4b-y	le-	[4dd	-ga-	4ff	<Ne'
=27	=27	=27	=27	=27	=27	=27	=27	=27	=27
4r	.	4e	bei	4b-]	.	4dd]	.	4gg	bei
4A	Ne'	4f	le-	2a	-ga-	4cc	-mi>	4aa	le-
4B-y	bei	2g	-ga-	.	.	2.b-y	che	4dd	-ga-
4c	le-	.	.	2g	-mi	.	.	4ee-X	-mi>
4d	-ga-	4G	-mi>	.	.	.	.	4.dd	che
4D	-mi	2d	che	2f	che	4a	ne	.	.
.	.	.	.	.	.	.	.	8cc	ne
4G	che	.	.	.	.	4g	l'om-	4b-y	l'om-
4A	ne	4c	ne	4e	ne	4cc	-br'a-	[4a	-br'a-
=28	=28	=28	=28	=28	=28	=28	=28	=28	=28
4F	l'om-	4f	l'om-	4d	l'om-	1a	-scon-	4a]	.
4D	-br'a-	4f	-br'a-	4d	-br'a-	.	.	2dd	-scon-
2A	-scon-	2e	-scon-	2A	-scon-	.	.	.	.
.	.	.	.	.	.	.	.	4cc#i	.
1Dl	-de.	1dl	-de.	1Al	-de.>	1f#Xl	-de.	1ddl	-de.
=29||	=29||	=29||	=29||	=29||	=29||	=29||	=29||	=29||	=29||
!!LO:TX:a:t=Seconda parte.
0r	.	0r	.	2r	.	1r	.	1ee-X	O
.	.	.	.	2.g	O	.	.	.	.
.	.	.	.	.	.	1b-y	O	1dd	dol-
.	.	.	.	4a	.	.	.	.	.
.	.	.	.	2b-y	.	.	.	.	.
=30	=30	=30	=30	=30	=30	=30	=30	=30	=30
0r	.	0r	.	2f	dol-	1a	dol-	2cc	-ce
.	.	.	.	2d	-ce	.	.	2.dd	lac-
.	.	.	.	1e-X	lac-	2g	-ce	.	.
.	.	.	.	.	.	.	.	8ccL	.
.	.	.	.	.	.	.	.	8b-yJ	.
.	.	.	.	.	.	[2g	lac-	4cc	.
.	.	.	.	.	.	.	.	4g	.
=31	=31	=31	=31	=31	=31	=31	=31	=31	=31
1r	.	0r	.	1d	-cio,	2g]	.	2b-y	.
.	.	.	.	.	.	2f#X	-cio,	2a	-cio,
2r	.	.	.	1b-y	<O	1r	.	2.dd	O
[2d	O	.	.	.	.	.	.	.	.
.	.	.	.	.	.	.	.	4ee	.
=32	=32	=32	=32	=32	=32	=32	=32	=32	=32
4d]	.	1f	O	1a	dol-	0r	.	2ff	.
4e	.	.	.	.	.	.	.	.	.
2f	.	.	.	.	.	.	.	1cc	dol-
2c	dol-	1e	dol-	2g	-ce	.	.	.	.
2A	-ce	.	.	[2a	lac-	.	.	2cc	-ce
=33	=33	=33	=33	=33	=33	=33	=33	=33	=33
1B-y	lac-	2d	-ce	4a]	.	0r	.	2.b-y	lac-
.	.	.	.	8gL	.	.	.	.	.
.	.	.	.	8fJ	.	.	.	.	.
.	.	1d	lac-	4g	.	.	.	.	.
.	.	.	.	4d	.	.	.	8aL	.
.	.	.	.	.	.	.	.	8gJ	.
1A	-cio,	.	.	2f	.	.	.	2a	.
.	.	2c#X	-cio,	2e	-cio,	.	.	2a	-cio,
=34	=34	=34	=34	=34	=34	=34	=34	=34	=34
4r	.	1r	.	2a	o	4r	.	4r	.
4f	o	.	.	.	.	4cc	o	4aa	o
4c	va-	.	.	4e	va-	4cc	va-	4gg	va-
4d	-ghe	.	.	4f	-ghe	4a	-ghe	4ff	-ghe
[1c	re-	4r	.	4g	re-	4cc	re-	2ee	re-
.	.	4g	o	4cc	-ti, o	2gg	-ti,	.	.
.	.	4e	va-	4g	va-	.	.	2cc	-ti,
.	.	4f	-ghe	4a	-ghe	[4ff	o	.	.
=35	=35	=35	=35	=35	=35	=35	=35	=35	=35
2c]	.	1g	re-	4g	re-	4ff]	.	1r	.
.	.	.	.	2cc	-ti, o	2ee	va-	.	.
2G	-ti, o	.	.	.	.	.	.	.	.
.	.	.	.	4.b-y	bo-	2dd	-ghe	.	.
2A	bo-	4e	-ti, o	.	.	.	.	2r	.
.	.	.	.	8a	.	.	.	.	.
.	.	4.f	bo-	4.a	.	4cc	re-	.	.
[2D	-sco	.	.	.	.	2b-y	-ti, o	4r	.
.	.	8eL	.	8g	.	.	.	.	.
.	.	8d	.	[4g	.	.	.	4dd	o
.	.	8cJ	.	.	.	.	.	.	.
=36	=36	=36	=36	=36	=36	=36	=36	=36	=36
2D]	.	2d	.	4g]	.	2a	bo-	2dd	bo-
.	.	.	.	4f#i	.	.	.	.	.
2r	.	4G	-sco	4g	-sco	2dd	-sco	4bnX	-sco
.	.	4g	Vez-	4g	Vez-	.	.	4bni	Vez-
1r	.	4.f	-zo-	4.a	-zo-	4.ff	Vez-	4.cc	-zo-
.	.	8f	-so, o	8a	-so, o	8ff	-zo-	8cc	-so, o
.	.	4B-y	Cac-	4b-y	Cac-	4ff	-so, o	4dd	Cac-
.	.	4c	-cia-	4g	-cia-	4ee-X	Cac-	4cc	-cia-
=37	=37	=37	=37	=37	=37	=37	=37	=37	=37
0r	.	4d	-tor	4fnXi	-tor	4dd	-cia-	4a	-tor
.	.	4B-y	che	4b-y	che	4ff	-tor	4dd	che
.	.	4c	mi	4g	mi	4eenXi	che	4cc	mi
.	.	4d	to-	4f	to-	2ff	mi	4b-i	to-
.	.	2c	-glie-	2g	-glie-	.	.	2cc	-glie-
.	.	.	.	.	.	4ee	to-	.	.
.	.	4F	-sti	2a	-sti	4ff	-glie-	4cc	-sti
.	.	4F	Il	.	.	4cc	-sti Il	4ff	Il
=38	=38	=38	=38	=38	=38	=38	=38	=38	=38
1r	.	2c	co-	2g	Il	2cc	co-	2ee-X	co-
.	.	2B-y	-re,	2b-y	co-	2f	-re,	2dd	-re,
4.d	do-	4.f	do-	2a	-re,	1r	.	2r	.
8c	-ve	8e	-ve	.	.	.	.	.	.
4B-y	l'hai,	4d	l'hai,	2r	.	.	.	4.ff	do-
4A	cru-	4c	cru-	.	.	.	.	.	.
.	.	.	.	.	.	.	.	8eenXi	-ve
=39	=39	=39	=39	=39	=39	=39	=39	=39	=39
8B-yL	-de-	8fL	-de-	1r	.	0r	.	4dd	l'hai,
8c	.	8e	.	.	.	.	.	.	.
8d	.	8f	.	.	.	.	.	4dd	cru-
8eJ	.	8gJ	.	.	.	.	.	.	.
4f	.	4a	.	.	.	.	.	4cc	-de-
4g	-le, a-	4g	-le a-	.	.	.	.	4b-y	-le, a-
2d	-sco-	2f#X	-sco-	2r	.	.	.	2a	-sco-
2d	-sto?	4f#i	-sto?	4r	.	.	.	2a	-sto?
.	.	4f#i	Il	4a	Il	.	.	.	.
=40	=40	=40	=40	=40	=40	=40	=40	=40	=40
0r	.	2g	co-	2b-y	co-	1r	.	4r	.
.	.	.	.	.	.	.	.	4dd	Il
.	.	2d	-re,	2a	-re,	.	.	2ff	co-
.	.	1r	.	4.a	do-	4.cc	do-	2f	-re,
.	.	.	.	8g	-ve	8b-y	-ve	.	.
.	.	.	.	4f	l'hai,	4a	l'hai,	4.cc	do-
.	.	.	.	4e	cru-	4g	cru-	.	.
.	.	.	.	.	.	.	.	8b-y	-ve
=41	=41	=41	=41	=41	=41	=41	=41	=41	=41
0r	.	0r	.	8fL	-de-	8ccL	-de-	4a	l'hai,
.	.	.	.	8g	.	8b-y	.	.	.
.	.	.	.	8a	.	8cc	.	4aa	cru-
.	.	.	.	8b-yJ	.	8ddJ	.	.	.
.	.	.	.	4cc	.	4ee	.	4gg	-de-
.	.	.	.	4dd	-le, a-	4dd	-le, a-	4ff	-le, a-
.	.	.	.	2a	-sco-	2cc#X	-sco-	2ee	-sco-
.	.	.	.	2a	-sto?	2cc#i	-sto?	2ee	-sto?
=42	=42	=42	=42	=42	=42	=42	=42	=42	=42
4r	.	4r	.	2f	Io	1r	.	1r	.
4d	Io	4d	Io	.	.	.	.	.	.
4c	pur	4e	pur	4e	pur	.	.	.	.
4A	ri-	4f	ri-	4c	ri-	.	.	.	.
2B-y	-tor-	2g	-tor-	2d	-tor-	4r	.	2r	.
.	.	.	.	.	.	4dd	Io	.	.
2A	-no,	2a	-no,	2e	-no,	4ccnXi	pur	4r	.
.	.	.	.	.	.	4a	ri-	4cc	Io
=43	=43	=43	=43	=43	=43	=43	=43	=43	=43
0r	.	4r	.	2r	.	2b-y	-tor-	4dd	pur
.	.	4g	<Io	.	.	.	.	4ee	ri-
.	.	4f	pur	2dd	<Io	4a	-no,	4ff	-tor-
.	.	4d	ri-	.	.	4f	.	4aa	-no
.	.	2e-X	-tor-	4b-y	pur	8gL	.	2.gg	spes-
.	.	.	.	.	.	8a	.	.	.
.	.	.	.	4g	ri-	8b-y	.	.	.
.	.	.	.	.	.	8ccJ	.	.	.
.	.	2d	-no,>	4b-y	-tor-	4.dd	.	.	.
.	.	.	.	4a	-no>	.	.	4ff#X	-so,
.	.	.	.	.	.	8dd	.	.	.
=44	=44	=44	=44	=44	=44	=44	=44	=44	=44
4r	.	2G	Io	2b-y	spes-	1dd	.	1r	.
4G	<Io	.	.	.	.	.	.	.	.
4G	pur	4A	pur	2a	-so,	.	.	.	.
4D	ri-	4B-y	ri-	.	.	.	.	.	.
2E-X	-tor-	4c	-tor-	1r	.	4g	.	2r	.
.	.	4c	-no	.	.	4gg	<Io	.	.
4D	-no,>	2d	spes-	.	.	4ff	pur	4r	.
4d	<Io	.	.	.	.	4dd	ri-	4ffnXi	<Io
=45	=45	=45	=45	=45	=45	=45	=45	=45	=45
4c	pur	2A	-so	4r	.	4ee	-tor-	4ee	pur
4A	ri-	.	.	4a	Io	4ff	-no>	4cc	ri-
4B-y	-tor-	2r	.	4g	pur	2gg	spes-	4dd	-tor-
4c	-no>	.	.	4e	ri-	.	.	4ee	-no
2.d	spes-	1r	.	4f	-tor-	1ff	-so a	2a	spes-
.	.	.	.	4g	-no	.	.	.	.
.	.	.	.	4a	spes-	.	.	2dd	-so> a
4B-y	-so a	.	.	[4b-y	-so a	.	.	.	.
=46	=46	=46	=46	=46	=46	=46	=46	=46	=46
2e-X	pian-	1r	.	4b-]	.	2ee-X	pian-	8gL	pian-
.	.	.	.	.	.	.	.	8a	.
.	.	.	.	2g	pian-	.	.	8b-y	.
.	.	.	.	.	.	.	.	8gJ	.
2c	-ger	.	.	.	.	2ee-i	-ger	4.cc	.
.	.	.	.	2a	-ger	.	.	.	.
.	.	.	.	.	.	.	.	8cc	-ger
2d	vo-	2r	.	.	.	2dd	vo-	2b-y	vo-
.	.	.	.	2g	vo-	.	.	.	.
2d	-sco,	4r	.	.	.	2dd	-sco,	2a	-sco,
.	.	4d	Et	4f#X	-sco,	.	.	.	.
=47	=47	=47	=47	=47	=47	=47	=47	=47	=47
4r	.	4d	a	4r	.	4r	.	4r	.
4G	Et	4d	cer-	4b-y	Et	4dd	Et	4gg	Et
4G	a	2g	-car	4b-y	a	4dd	a	4gg	a
4G	cer-	.	.	4b-y	cer-	4dd	cer-	4gg	cer-
2d	-car,	4r	.	4a	-car	8ddL	-car	8ffL	-car
.	.	.	.	.	.	8cc	.	8ee	.
.	.	4d	tra	4fnXi	tra	8b-y	.	8dd	.
.	.	.	.	.	.	8aJ	.	8ccJ	.
2r	.	4e-X	que-	8gL	que-	4g	.	8b-yL	.
.	.	.	.	8a	.	.	.	8cc	.
.	.	8dL	.	8b-y	.	8fL	.	8dd	.
.	.	8cJ	.	8ccJ	.	8eJ	.	8eeJ	.
=48	=48	=48	=48	=48	=48	=48	=48	=48	=48
0r	.	8B-yL	.	4dd	.	4d	.	4ff	.
.	.	8c	.	.	.	.	.	.	.
.	.	8d	.	4b-y	-st'her-	4dd	tra	4f	tra
.	.	8enXiJ	.	.	.	.	.	.	.
.	.	4f	.	4.a	-bet-	4cc	que-	4f	que-
.	.	4d	-st'her-	.	.	4ff	-st'her-	4f	-st'her-
.	.	.	.	16gLL	.	.	.	.	.
.	.	.	.	16aJJ	.	.	.	.	.
.	.	4G	-bet-	4.g	.	4ee	-bet-	4b-y	-bet-
.	.	4G	-t'e	.	.	4dd	-t'e	4b-y	-t'e
.	.	.	.	8f	.	.	.	.	.
.	.	2A	que-	2e	.	2cc#X	que-	2a	que-
=49	=49	=49	=49	=49	=49	=49	=49	=49	=49
4r	.	1A	-sti	4e	-te,	4cc#i	-sti,	4a	-sti,
4D	<Et	.	.	4a	Et	4dd	Et	4ff	Et
4D	a	.	.	4a	a	4dd	a	4ff	a
4D	cer-	.	.	4a	cer-	4dd	cer-	4ff	cer-
4A	-car>	1r	.	8aL	-car	8ccnXiL	-car	4ee	-car
.	.	.	.	8g	.	8b-y	.	.	.
4A	tra	.	.	8f	.	8a	.	8ddL	.
.	.	.	.	8eJ	.	8gJ	.	8ccJ	.
4B-y	que-	.	.	4d	.	8fL	.	8ddL	.
.	.	.	.	.	.	8g	.	8ee	.
8AL	.	.	.	8cL	.	8a	.	8ff	.
8GJ	.	.	.	8B-yJ	.	8b-yJ	.	8ggJ	.
=50	=50	=50	=50	=50	=50	=50	=50	=50	=50
8FL	.	0r	.	4A	.	4cc	.	4aa	.
8G	.	.	.	.	.	.	.	.	.
8A	.	.	.	4a	tra	4cc	tra	4ff	tra
8B-yJ	.	.	.	.	.	.	.	.	.
4c	.	.	.	4g	que-	4cc	que-	4ee	que-
4G	-st'her-	.	.	4b-y	-st'her-	4dd	-st'her-	4dd	-st'her-
4c	-bet-	.	.	4a	-bet-	4.ee-X	-bet-	4.cc	-bet-
4c	-t'e	.	.	4g	.	.	.	.	.
.	.	.	.	.	.	8ee-i	-t'e	8b-y	-t'e
2d	que-	.	.	2f#X	.	2dd	que-	[2a	que-
=51	=51	=51	=51	=51	=51	=51	=51	=51	=51
4d	-sti	0r	.	4f#i	-te	1dd	-sti	4a]	.
4.G	Va-	.	.	4.b-y	Va-	.	.	4g	-sti
.	.	.	.	.	.	.	.	2r	.
8A	-ghi	.	.	8a	-ghi	.	.	.	.
4B-y	fio-	.	.	4g	fio-	.	.	.	.
4A	-ret-	.	.	4f#i	-ret-	2r	.	2r	.
4G	-ti,	.	.	4g	-ti,	.	.	.	.
4r	.	.	.	4a	<Va-	4r	.	4r	.
[4d	<Va-	.	.	8aL	-ghi	[4ff	Va-	[4dd	Va-
.	.	.	.	8aJ	fio-	.	.	.	.
=52	=52	=52	=52	=52	=52	=52	=52	=52	=52
8dL]	.	4r	.	4a	-ret-	8ffL]	.	8ddL]	.
8c#XJ	-ghi	.	.	.	.	8eeJ	-ghi	8eeJ	-ghi
4d	fio-	4.a	Va-	4a	-ti>	4dd	fio-	4ff	fio-
4A	-ret-	.	.	4r	.	4cc#X	-ret-	4ee	-ret-
.	.	8g	-ghi	.	.	.	.	.	.
4D	-ti>	4f#X	fio-	4a	o-	4dd	-ti	4dd	-ti
1r	.	4g	-ret-	2b-y	-v'e-	4r	.	4r	.
.	.	4G	-ti o-	.	.	4gg	o-	4dd	o-
.	.	4.d	-v'e-	4a	-gli	4.ff	-v'e-	4.dd	-v'e-
.	.	.	.	[4a	sia	.	.	.	.
.	.	8d	-gli	.	.	8dd	-gli	8ff	-gli
=53	=53	=53	=53	=53	=53	=53	=53	=53	=53
1r	.	4c#X	sia	4a]	.	4ee	sia	4ee	sia
.	.	4d	na-	4a	na-	4ff	na-	2dd	na-
.	.	2A	-sco-	2a	-sco-	2ee	-sco-	.	.
.	.	.	.	.	.	.	.	4cc#X	-sco-
4r	.	[1dl	-sto.	4f#X	-sto,	[1ddl	-sto.	4dd	-sto,
4D	o-	.	.	4f#i	<o-	.	.	4a	<o-
4.G	-v'e-	.	.	4.g	-v'e-	.	.	4.b-y	-v'e-
8G	-gli	.	.	8b-y	-gli	.	.	8g	-gli
=54	=54	=54	=54	=54	=54	=54	=54	=54	=54
4F#X	sia	0d]	.	4a	sia	0dd]	.	4a	sia
4G	na-	.	.	2g	na-	.	.	4b-y	na-
2D	-sco-	.	.	.	.	.	.	2a	-sco-
.	.	.	.	4f#X	-sco-	.	.	.	.
1Gl	-sto.	.	.	1gl	-sto.>	.	.	1bnXl	-sto.>
==	==	==	==	==	==	==	==	==	==
*-	*-	*-	*-	*-	*-	*-	*-	*-	*-
!!!system-decoration: [(s1)(s2)(s3)(s4)(s5)]
!!!RDF**kern: i = editorial accidental
!!!RDF**kern: l = terminal long
!!!ENC: Emiliano Ricciardi
!!!END: 2019/08/08
!!!EED: Ricciardi, Emiliano
!!!EEV: 2019/08/08
!!!YEC: Copyright 2018 Emiliano Ricciardi, All Rights Reserved
!!!ONB: Translated from MusicXML on 2019/08/08 and edited by Craig Stuart Sapp
